images/feedback-page/Calendar_Week.svg

<svg width="24" height="24" viewBox="0 0 24 24" fill="none" xmlns="http://www.w3.org/2000/svg">
<path d="M4 7.5C3.72386 7.5 3.5 7.72386 3.5 8C3.5 8.27614 3.72386 8.5 4 8.5V7.5ZM20 8.5C20.2761 8.5 20.5 8.27614 20.5 8C20.5 7.72386 20.2761 7.5 20 7.5V8.5ZM5.0918 19.782L5.31879 19.3365L5.0918 19.782ZM4.21799 18.908L3.77248 19.135H3.77248L4.21799 18.908ZM19.7822 18.908L19.3367 18.681L19.7822 18.908ZM18.9078 19.782L18.6808 19.3365L18.9078 19.782ZM18.9078 4.21799L19.1348 3.77248L18.9078 4.21799ZM19.7822 5.09204L19.3367 5.31904L19.7822 5.09204ZM5.0918 4.21799L5.31879 4.66349L5.0918 4.21799ZM4.21799 5.09204L4.66349 5.31904L4.21799 5.09204ZM16 12.5C16.2761 12.5 16.5 12.2761 16.5 12C16.5 11.7239 16.2761 11.5 16 11.5V12.5ZM8 11.5C7.72386 11.5 7.5 11.7239 7.5 12C7.5 12.2761 7.72386 12.5 8 12.5V11.5ZM16.5 2C16.5 1.72386 16.2761 1.5 16 1.5C15.7239 1.5 15.5 1.72386 15.5 2H16.5ZM15.5 4C15.5 4.27614 15.7239 4.5 16 4.5C16.2761 4.5 16.5 4.27614 16.5 4H15.5ZM8.5 2C8.5 1.72386 8.27614 1.5 8 1.5C7.72386 1.5 7.5 1.72386 7.5 2H8.5ZM7.5 4C7.5 4.27614 7.72386 4.5 8 4.5C8.27614 4.5 8.5 4.27614 8.5 4H7.5ZM4 8.5H20V7.5H4V8.5ZM7.2002 4.5H16.8002V3.5H7.2002V4.5ZM19.5 7.19995V16.8H20.5V7.19995H19.5ZM16.8002 19.5H7.2002V20.5H16.8002V19.5ZM4.5 16.8V7.19995H3.5V16.8H4.5ZM7.2002 19.5C6.6319 19.5 6.23563 19.4996 5.92711 19.4744C5.62438 19.4497 5.45045 19.4036 5.31879 19.3365L4.8648 20.2275C5.16097 20.3784 5.48118 20.4413 5.84568 20.4711C6.20436 20.5004 6.64838 20.5 7.2002 20.5V19.5ZM3.5 16.8C3.5 17.3518 3.49961 17.7957 3.52891 18.1543C3.55868 18.5187 3.62159 18.8389 3.77248 19.135L4.66349 18.681C4.5964 18.5494 4.55031 18.3755 4.52559 18.0729C4.50039 17.7644 4.5 17.3683 4.5 16.8H3.5ZM5.31879 19.3365C5.03662 19.1927 4.80734 18.9634 4.66349 18.681L3.77248 19.135C4.01213 19.6054 4.39432 19.9878 4.8648 20.2275L5.31879 19.3365ZM19.5 16.8C19.5 17.3683 19.4997 17.7645 19.4745 18.073C19.4498 18.3756 19.4038 18.5494 19.3367 18.681L20.2277 19.135C20.3787 18.8388 20.4415 18.5186 20.4712 18.1542C20.5004 17.7957 20.5 17.3517 20.5 16.8H19.5ZM16.8002 20.5C17.352 20.5 17.7958 20.5004 18.1543 20.4711C18.5187 20.4413 18.8387 20.3784 19.1348 20.2275L18.6808 19.3365C18.5491 19.4036 18.3753 19.4497 18.0729 19.4744C17.7645 19.4996 17.3685 19.5 16.8002 19.5V20.5ZM19.3367 18.681C19.193 18.963 18.9633 19.1925 18.6808 19.3365L19.1348 20.2275C19.6049 19.9879 19.9879 19.6057 20.2277 19.135L19.3367 18.681ZM16.8002 4.5C17.3685 4.5 17.7646 4.50039 18.0729 4.52559C18.3753 4.55031 18.5491 4.59638 18.6808 4.66349L19.1348 3.77248C18.8387 3.6216 18.5187 3.55869 18.1543 3.52891C17.7958 3.49961 17.352 3.5 16.8002 3.5V4.5ZM20.5 7.19995C20.5 6.6482 20.5004 6.20429 20.4712 5.84575C20.4415 5.48136 20.3787 5.16124 20.2277 4.86505L19.3367 5.31904C19.4038 5.45066 19.4498 5.62444 19.4745 5.92703C19.4997 6.23546 19.5 6.6316 19.5 7.19995H20.5ZM18.6808 4.66349C18.9632 4.8074 19.193 5.037 19.3367 5.31904L20.2277 4.86505C19.9879 4.39444 19.605 4.01206 19.1348 3.77248L18.6808 4.66349ZM7.2002 3.5C6.64839 3.5 6.20437 3.49961 5.84569 3.52891C5.4812 3.55868 5.16098 3.62157 4.8648 3.77248L5.31879 4.66349C5.45044 4.59641 5.62437 4.55032 5.92709 4.52559C6.23563 4.50039 6.6319 4.5 7.2002 4.5V3.5ZM4.5 7.19995C4.5 6.63165 4.50039 6.23551 4.52559 5.92711C4.55031 5.62455 4.59639 5.45072 4.66349 5.31904L3.77248 4.86505C3.62159 5.16119 3.55868 5.48126 3.52891 5.84567C3.49961 6.20424 3.5 6.64815 3.5 7.19995H4.5ZM4.8648 3.77248C4.39427 4.01223 4.0121 4.39477 3.77248 4.86505L4.66349 5.31904C4.80737 5.03666 5.03668 4.80723 5.31879 4.66349L4.8648 3.77248ZM16 11.5H8V12.5H16V11.5ZM15.5 2V4H16.5V2H15.5ZM7.5 2V4H8.5V2H7.5Z" fill="#66DD8D"/>
</svg>

<svg xmlns="http://www.w3.org/2000/svg" width="24" height="24" fill="none"><path fill="#66DD8D" d="M4 7.5a.5.5 0 0 0 0 1v-1Zm16 1a.5.5 0 0 0 0-1v1ZM5.092 19.782l.227-.445-.227.445Zm-.874-.874-.446.227.446-.227Zm15.564 0-.445-.227.445.227Zm-.874.874-.227-.445.227.445Zm0-15.564.227-.446-.227.446Zm.874.874-.445.227.445-.227Zm-14.69-.874.227.445-.227-.445Zm-.874.874.445.227-.445-.227ZM16 12.5a.5.5 0 0 0 0-1v1Zm-8-1a.5.5 0 0 0 0 1v-1ZM16.5 2a.5.5 0 0 0-1 0h1Zm-1 2a.5.5 0 0 0 1 0h-1Zm-7-2a.5.5 0 0 0-1 0h1Zm-1 2a.5.5 0 0 0 1 0h-1ZM4 8.5h16v-1H4v1Zm3.2-4h9.6v-1H7.2v1Zm12.3 2.7v9.6h1V7.2h-1Zm-2.7 12.3H7.2v1h9.6v-1ZM4.5 16.8V7.2h-1v9.6h1Zm2.7 2.7c-.568 0-.964 0-1.273-.026-.303-.024-.477-.07-.608-.137l-.454.89c.296.151.616.214.98.244.36.03.803.029 1.355.029v-1Zm-3.7-2.7c0 .552 0 .996.029 1.354.03.365.093.685.243.981l.891-.454c-.067-.132-.113-.306-.137-.608-.026-.309-.026-.705-.026-1.273h-1Zm1.819 2.537a1.5 1.5 0 0 1-.656-.656l-.89.454c.24.47.621.853 1.092 1.092l.454-.89ZM19.5 16.8c0 .568 0 .965-.026 1.273-.024.303-.07.476-.137.608l.89.454c.152-.296.215-.616.244-.98.03-.36.029-.803.029-1.355h-1Zm-2.7 3.7c.552 0 .996 0 1.354-.029.365-.03.685-.093.98-.244l-.453-.89c-.132.067-.306.113-.608.137-.308.026-.704.026-1.273.026v1Zm2.537-1.819a1.501 1.501 0 0 1-.656.655l.454.892a2.5 2.5 0 0 0 1.093-1.093l-.891-.454ZM16.8 4.5c.569 0 .965 0 1.273.026.302.024.476.07.608.137l.454-.89c-.296-.151-.616-.214-.98-.244-.36-.03-.803-.029-1.355-.029v1Zm3.7 2.7c0-.552 0-.996-.029-1.354-.03-.365-.092-.685-.243-.981l-.891.454c.067.132.113.305.137.608.026.308.026.705.026 1.273h1Zm-1.82-2.537c.283.144.513.374.657.656l.89-.454a2.5 2.5 0 0 0-1.092-1.093l-.454.891ZM7.2 3.5c-.552 0-.996 0-1.354.029-.365.03-.685.093-.981.243l.454.891c.131-.067.305-.113.608-.137C6.236 4.5 6.632 4.5 7.2 4.5v-1ZM4.5 7.2c0-.568 0-.964.026-1.273.024-.302.07-.476.137-.608l-.89-.454c-.151.296-.214.616-.244.98-.03.36-.029.803-.029 1.355h1Zm.365-3.428a2.5 2.5 0 0 0-1.093 1.093l.891.454a1.5 1.5 0 0 1 .656-.656l-.454-.89ZM16 11.5H8v1h8v-1ZM15.5 2v2h1V2h-1Zm-8 0v2h1V2h-1Z"/></svg>
